X:1
T:Bóg się rodzi...
T:Bóg się rodzi...
T:opr. St. Głowacki
T:Maciej Łuczka Hosanna Nysa
C:opr. St. Głowacki
Z:Maciej Łuczka Hosanna Nysa
%%score [ ( 1 2 ) ( 3 4 ) ]
L:1/8
Q:1/4=105
M:3/4
K:F
V:1 treble nm="S\nA"
V:2 treble 
V:3 bass nm="T\nB"
V:4 bass 
V:1
 Ff f2 (ed) | dd d2 (cB) | Ac fc BA |1 A2 G2 z2 :|2 A2 G2 z2 |: B3 G A B | c c A2 c2 | %7
w: Bóg się ro- dzi _|moc tru- chle- je _|Pan Nie- bio- sów ob- na-|żo- ny.|czo- ny|Wzgar- dzo- ny o-|kry- ty chwa- łą|
w: O- gień krze- pnie _|blask ciem- nie- je _|ma gra- ni- ce nie- skoń-|||||
 (Bcd) e f g | f e (dc) !breath!A c | !>!c2 !>!c2 !>!c2 | cc d2 A2 |!f! B3 G AB | %12
w: śmier- * * tel- ny Król|nad wie- ka- * mi, A|Sło- wo cia-|łem się sta- ło.|i miesz- ka- ło|
w: |||||
 cE G2 !fermata!F z :| %13
w: mię- dzy na- mi.|
w: |
V:2
 FG A2 (GF) | ^Fc B2 (AG) | FG FA GF |1 F2 E2 z2 :|2 F2 E2 z2 |: G3 E F G | A A F2 A2 | G2 B2 c G | %8
w: |||||Wzgar- dzo- ny o-|kry- ty chwa- łą|śmier- tel- ny Król|
 A G F2 E C | CD EB AG | FE D2 _E2 | D3 G FF | EE E2 F z :| %13
w: nad wie- ka- mi, A|Sło- * wo- * Cia- *|łem się sta- ło|i miesz- ka- ło|mię- dzy na- mi.|
V:3
 A,B, C2 C2 | D3 F ED | CC A,E DD |1 C2 C2 z2 :|2 =B,2 C2 z C |: C C C C C C | (CF E2) _E2 | %7
w: Bóg się ro- dzi|moc tru- chle- je|Pan Nie- bio- sów ob- na-|żo- ny.||||
w: O- gień krze- pnie|blask ciem- nie- je|ma gra- ni- ce nie- skoń-||czo- ny Wzgar|dzo- ny i o- kry- ty|chwa- * * łą|
 D2 G2 F E | DE F2 C2 | B,3 G, A,B, | CC A,2 C2 | B,D D3 D | CC B,2 !breath!A, C :| %13
w: ||||||
w: śmier- tel- ny król|nad wie- ka- mi,|A Sło- wo Cia-|łem się sta- ło|i miesz- ka- ło|mie- dzy na- mi. *|
V:4
 F,3 F, G,A, | B,A, G,2 C2 | F,E, D,A,, B,,=B,, |1 C,2 C,2 z2 :|2 G,,2 C,2 z C, |: %5
w: Bóg się ro- dzi|moc tru- chle- je,|Pan Nie- bio- sów ob- na-|żo- ny|czo- ny Wzgar-|
w: O- gień krze- pnie|blask ciem- nie- je|ma gra- ni- ce nie- skoń|||
 C, D, E, B, A, G, | F,4 F,2 | B,3 G, A, B, | C C A,2 C2 | G,3 E, F, G, | A, A, F,2 ^F,2 | %11
w: dzo- ny i o- kry- ty|chwa- łą|śmier- tel- ny król|nad wie- ka- mi,|A Sło- wo Cia-|łem się sta- ło|
w: ||||||
 G,3 B, A, G, | C C, C,2 F, C, :| %13
w: i miesz- ka- ło|mię- dzy na- mi. Wzgar|
w: ||

